;FLAVOR:Marlin
;TIME:3271
;Filament used: 1.17149m
;Layer height: 0.12
;MINX:108.504
;MINY:121.569
;MINZ:0.12
;MAXX:190.504
;MAXY:163.569
;MAXZ:6.24
;Generated with Cura_SteamEngine 4.5.0
M140 S60
M105
M190 S60
M104 S200
M105
M109 S200
M82 ;absolute extrusion mode
M201 X500.00 Y500.00 Z100.00 E5000.00 ;Setup machine max acceleration
M203 X500.00 Y500.00 Z10.00 E50.00 ;Setup machine max feedrate
M204 P500.00 R1000.00 T500.00 ;Setup Print/Retract/Travel acceleration
M205 X8.00 Y8.00 Z0.40 E5.00 ;Setup Jerk
M220 S100 ;Reset Feedrate
M221 S100 ;Reset Flowrate

G28 ;Home
M420 S1 Z2 ;Enable ABL using saved Mesh and Fade Height

G92 E0 ;Reset Extruder
G1 Z2.0 F3000 ;Move Z Axis up
G1 X10.1 Y20 Z0.28 F5000.0 ;Move to start position
G1 X10.1 Y200.0 Z0.28 F1500.0 E15 ;Draw the first line
G1 X10.4 Y200.0 Z0.28 F5000.0 ;Move to side a little
G1 X10.4 Y20 Z0.28 F1500.0 E30 ;Draw the second line
G92 E0 ;Reset Extruder
G1 Z2.0 F3000 ;Move Z Axis up

G92 E0
G92 E0
G1 F2700 E-5
;LAYER_COUNT:52
;LAYER:0
M107
G0 F6000 X112.39 Y124.196 Z0.12
;TYPE:SKIRT
G1 F2700 E0
G1 F1200 X113.13 Y123.62 E0.01871
G1 X113.916 Y123.108 E0.03743
G1 X114.743 Y122.666 E0.05615
G1 X115.605 Y122.296 E0.07487
G1 X116.495 Y122 E0.09358
G1 X117.407 Y121.782 E0.1123
G1 X118.334 Y121.641 E0.13101
G1 X119.205 Y121.582 E0.14843
G1 X119.834 Y121.569 E0.16099
G1 X123.828 Y121.57 E0.24069
G1 X124.526 Y121.58 E0.25462
G1 X125.439 Y121.631 E0.27287
G1 X126.73 Y121.759 E0.29876
G1 X127.342 Y121.828 E0.31105
G1 X129.85 Y122.039 E0.36128
G1 X132.354 Y122.177 E0.41132
G1 X134.883 Y122.246 E0.46181
G1 X137.407 Y122.242 E0.51218
G1 X139.921 Y122.168 E0.56237
G1 X142.355 Y122.027 E0.61102
G1 X146.602 Y121.627 E0.69615
G1 X147.298 Y121.584 E0.71007
G1 X147.625 Y121.574 E0.7166
G1 X147.961 Y121.569 E0.7233
G1 X178.939 Y121.57 E1.3415
G1 X179.637 Y121.579 E1.35543
G1 X180.573 Y121.631 E1.37414
G1 X181.502 Y121.763 E1.39287
G1 X182.416 Y121.973 E1.41158
G1 X183.309 Y122.26 E1.4303
G1 X184.174 Y122.623 E1.44902
G1 X185.005 Y123.057 E1.46773
G1 X185.796 Y123.561 E1.48645
G1 X186.541 Y124.131 E1.50517
G1 X187.235 Y124.762 E1.52388
G1 X187.872 Y125.449 E1.54258
G1 X188.449 Y126.189 E1.56131
G1 X188.961 Y126.975 E1.58003
G1 X189.404 Y127.802 E1.59875
G1 X189.775 Y128.663 E1.61746
G1 X190.071 Y129.553 E1.63618
G1 X190.29 Y130.465 E1.65489
G1 X190.431 Y131.392 E1.67361
G1 X190.491 Y132.27 E1.69117
G1 X190.504 Y132.899 E1.70372
G1 X190.503 Y151.969 E2.08429
G1 X190.494 Y152.696 E2.09879
G1 X190.443 Y153.633 E2.11752
G1 X190.311 Y154.561 E2.13623
G1 X190.102 Y155.475 E2.15494
G1 X189.815 Y156.368 E2.17366
G1 X189.453 Y157.234 E2.19239
G1 X189.019 Y158.065 E2.2111
G1 X188.515 Y158.856 E2.22981
G1 X187.946 Y159.601 E2.24852
G1 X187.315 Y160.296 E2.26725
G1 X186.628 Y160.934 E2.28596
G1 X185.889 Y161.511 E2.30467
G1 X185.103 Y162.023 E2.32339
G1 X184.277 Y162.466 E2.3421
G1 X183.415 Y162.838 E2.36083
G1 X182.526 Y163.134 E2.37953
G1 X181.614 Y163.354 E2.39825
G1 X180.687 Y163.495 E2.41697
G1 X179.803 Y163.556 E2.43465
G1 X179.174 Y163.569 E2.44721
G1 X120.211 Y163.569 E3.62388
G1 X119.371 Y163.559 E3.64064
G1 X118.435 Y163.507 E3.65935
G1 X117.506 Y163.375 E3.67807
G1 X116.592 Y163.165 E3.69679
G1 X115.699 Y162.878 E3.71551
G1 X114.834 Y162.515 E3.73423
G1 X114.003 Y162.081 E3.75294
G1 X113.212 Y161.577 E3.77165
G1 X112.467 Y161.007 E3.79037
G1 X111.773 Y160.376 E3.80909
G1 X111.136 Y159.689 E3.82779
G1 X110.559 Y158.949 E3.84651
G1 X110.047 Y158.163 E3.86523
G1 X109.604 Y157.336 E3.88396
G1 X109.233 Y156.475 E3.90267
G1 X108.937 Y155.585 E3.92138
G1 X108.718 Y154.673 E3.9401
G1 X108.577 Y153.746 E3.95881
G1 X108.517 Y152.857 E3.97659
G1 X108.504 Y152.227 E3.98917
G1 X108.505 Y133.093 E4.37101
G1 X108.514 Y132.429 E4.38426
G1 X108.567 Y131.493 E4.40297
G1 X108.699 Y130.564 E4.42169
G1 X108.91 Y129.65 E4.44041
G1 X109.198 Y128.758 E4.45912
G1 X109.561 Y127.893 E4.47784
G1 X109.996 Y127.062 E4.49656
G1 X110.5 Y126.271 E4.51528
G1 X111.07 Y125.527 E4.53398
G1 X111.702 Y124.833 E4.55271
G1 X112.39 Y124.196 E4.57142
G0 F6000 X112.779 Y124.392
G1 F1200 X113.514 Y123.839 E4.58978
G1 X114.295 Y123.351 E4.60816
G1 X115.116 Y122.933 E4.62654
G1 X115.969 Y122.588 E4.6449
G1 X116.849 Y122.318 E4.66327
G1 X117.75 Y122.126 E4.68166
G1 X118.663 Y122.012 E4.70002
G1 X119.216 Y121.982 E4.71107
G1 X119.834 Y121.969 E4.72341
G1 X123.822 Y121.97 E4.80299
G1 X124.52 Y121.98 E4.81692
G1 X125.4 Y122.029 E4.83451
G1 X126.686 Y122.156 E4.8603
G1 X127.303 Y122.225 E4.87269
G1 X129.829 Y122.438 E4.92328
G1 X132.354 Y122.577 E4.97374
G1 X134.873 Y122.646 E5.02403
G1 X137.42 Y122.642 E5.07486
G1 X139.921 Y122.569 E5.12479
G1 X142.417 Y122.424 E5.17468
G1 X146.64 Y122.026 E5.25933
G1 X147.31 Y121.984 E5.27273
G1 X147.961 Y121.969 E5.28572
G1 X178.934 Y121.97 E5.90382
G1 X179.632 Y121.979 E5.91775
G1 X180.551 Y122.031 E5.93612
G1 X181.462 Y122.162 E5.95449
G1 X182.358 Y122.372 E5.97285
G1 X183.233 Y122.659 E5.99123
G1 X184.08 Y123.021 E6.00961
G1 X184.892 Y123.455 E6.02799
G1 X185.663 Y123.957 E6.04635
G1 X186.388 Y124.525 E6.06473
G1 X187.061 Y125.154 E6.08311
G1 X187.676 Y125.838 E6.10147
G1 X188.23 Y126.573 E6.11983
G1 X188.718 Y127.354 E6.13821
G1 X189.137 Y128.174 E6.15659
G1 X189.483 Y129.027 E6.17496
G1 X189.753 Y129.907 E6.19333
G1 X189.946 Y130.808 E6.21172
G1 X190.06 Y131.721 E6.23008
G1 X190.091 Y132.281 E6.24127
G1 X190.104 Y132.899 E6.2536
G1 X190.103 Y151.964 E6.63407
G1 X190.094 Y152.691 E6.64858
G1 X190.043 Y153.61 E6.66694
G1 X189.912 Y154.522 E6.68533
G1 X189.702 Y155.418 E6.7037
G1 X189.416 Y156.293 E6.72207
G1 X189.055 Y157.14 E6.74044
G1 X188.621 Y157.952 E6.75881
G1 X188.119 Y158.724 E6.77719
G1 X187.551 Y159.449 E6.79557
G1 X186.923 Y160.122 E6.81394
G1 X186.239 Y160.738 E6.83231
G1 X185.504 Y161.292 E6.85068
G1 X184.724 Y161.781 E6.86905
G1 X183.904 Y162.2 E6.88743
G1 X183.051 Y162.546 E6.9058
G1 X182.171 Y162.817 E6.92417
G1 X181.271 Y163.01 E6.94254
G1 X180.357 Y163.125 E6.96092
G1 X179.792 Y163.156 E6.97222
G1 X179.174 Y163.169 E6.98455
G1 X120.211 Y163.169 E8.16122
G1 X119.376 Y163.159 E8.17789
G1 X118.457 Y163.107 E8.19625
G1 X117.546 Y162.976 E8.21462
G1 X116.65 Y162.766 E8.23299
G1 X115.775 Y162.479 E8.25136
G1 X114.928 Y162.117 E8.26975
G1 X114.116 Y161.683 E8.28812
G1 X113.345 Y161.181 E8.30648
G1 X112.62 Y160.613 E8.32486
G1 X111.947 Y159.984 E8.34324
G1 X111.332 Y159.3 E8.3616
G1 X110.778 Y158.565 E8.37997
G1 X110.29 Y157.784 E8.39834
G1 X109.871 Y156.964 E8.41672
G1 X109.525 Y156.111 E8.43509
G1 X109.255 Y155.231 E8.45346
G1 X109.062 Y154.33 E8.47185
G1 X108.948 Y153.417 E8.49021
G1 X108.917 Y152.846 E8.50162
G1 X108.904 Y152.227 E8.51398
G1 X108.905 Y133.098 E8.89572
G1 X108.914 Y132.434 E8.90897
G1 X108.966 Y131.515 E8.92734
G1 X109.098 Y130.604 E8.94571
G1 X109.309 Y129.708 E8.96408
G1 X109.597 Y128.833 E8.98246
G1 X109.959 Y127.987 E9.00082
G1 X110.393 Y127.175 E9.0192
G1 X110.897 Y126.404 E9.03758
G1 X111.465 Y125.68 E9.05594
G1 X112.094 Y125.007 E9.07433
G1 X112.779 Y124.392 E9.0927
G0 F6000 X113.167 Y124.593
G1 F1200 X113.898 Y124.063 E9.11072
G1 X114.673 Y123.6 E9.12873
G1 X115.486 Y123.207 E9.14675
G1 X116.331 Y122.887 E9.16478
G1 X117.2 Y122.644 E9.18279
G1 X118.088 Y122.478 E9.20082
G1 X119.227 Y122.382 E9.22363
G1 X119.834 Y122.369 E9.23575
G1 X123.816 Y122.37 E9.31521
G1 X124.514 Y122.38 E9.32914
G1 X125.361 Y122.427 E9.34607
G1 X126.641 Y122.554 E9.37174
G1 X127.258 Y122.623 E9.38413
G1 X129.81 Y122.838 E9.43524
G1 X132.322 Y122.977 E9.48544
G1 X134.863 Y123.046 E9.53617
G1 X137.397 Y123.042 E9.58674
G1 X139.957 Y122.967 E9.63785
G1 X142.448 Y122.822 E9.68764
G1 X146.677 Y122.424 E9.77241
G1 X147.322 Y122.384 E9.78531
G1 X147.961 Y122.369 E9.79806
G1 X178.929 Y122.37 E10.41606
G1 X179.627 Y122.379 E10.42999
G1 X180.528 Y122.43 E10.448
G1 X181.422 Y122.562 E10.46604
G1 X182.3 Y122.771 E10.48405
G1 X183.157 Y123.058 E10.50208
G1 X183.984 Y123.419 E10.52009
G1 X184.777 Y123.852 E10.53812
G1 X185.528 Y124.353 E10.55614
G1 X186.232 Y124.919 E10.57416
G1 X186.883 Y125.545 E10.59219
G1 X187.476 Y126.226 E10.61021
G1 X188.006 Y126.957 E10.62823
G1 X188.47 Y127.732 E10.64625
G1 X188.864 Y128.545 E10.66428
G1 X189.184 Y129.389 E10.68229
G1 X189.428 Y130.259 E10.70033
G1 X189.594 Y131.147 E10.71835
G1 X189.691 Y132.292 E10.74129
G1 X189.704 Y132.899 E10.7534
G1 X189.703 Y151.959 E11.13376
G1 X189.694 Y152.686 E11.14827
G1 X189.643 Y153.588 E11.1663
G1 X189.512 Y154.482 E11.18433
G1 X189.303 Y155.36 E11.20235
G1 X189.017 Y156.217 E11.22037
G1 X188.656 Y157.045 E11.2384
G1 X188.224 Y157.837 E11.2564
G1 X187.723 Y158.589 E11.27444
G1 X187.157 Y159.293 E11.29246
G1 X186.532 Y159.944 E11.31047
G1 X185.851 Y160.538 E11.32851
G1 X185.12 Y161.069 E11.34654
G1 X184.346 Y161.533 E11.36455
G1 X183.533 Y161.927 E11.38257
G1 X182.689 Y162.247 E11.40059
G1 X181.819 Y162.492 E11.41862
G1 X180.932 Y162.658 E11.43663
G1 X179.781 Y162.756 E11.45969
G1 X179.174 Y162.769 E11.4718
G1 X120.211 Y162.769 E12.64847
G1 X119.381 Y162.759 E12.66504
G1 X118.48 Y162.708 E12.68305
G1 X117.586 Y162.576 E12.70108
G1 X116.708 Y162.367 E12.71909
G1 X115.851 Y162.08 E12.73713
G1 X115.024 Y161.719 E12.75513
G1 X114.231 Y161.286 E12.77317
G1 X113.48 Y160.785 E12.79118
G1 X112.776 Y160.219 E12.80921
G1 X112.125 Y159.593 E12.82723
G1 X111.532 Y158.912 E12.84525
G1 X111.002 Y158.181 E12.86327
G1 X110.538 Y157.406 E12.8813
G1 X110.144 Y156.593 E12.89933
G1 X109.824 Y155.749 E12.91734
G1 X109.58 Y154.879 E12.93537
G1 X109.414 Y153.991 E12.9534
G1 X109.317 Y152.836 E12.97653
G1 X109.304 Y152.227 E12.98868
G1 X109.305 Y133.104 E13.3703
G1 X109.314 Y132.44 E13.38356
G1 X109.366 Y131.538 E13.40159
G1 X109.498 Y130.645 E13.4196
G1 X109.708 Y129.766 E13.43764
G1 X109.995 Y128.91 E13.45565
G1 X110.357 Y128.083 E13.47367
G1 X110.791 Y127.29 E13.49171
G1 X111.292 Y126.54 E13.50971
G1 X111.859 Y125.836 E13.52775
G1 X112.485 Y125.186 E13.54576
G1 X113.167 Y124.593 E13.56379
G1 F2700 E8.56379
;MESH:Object 2
G0 F6000 X146.966 Y132.983
G0 X148.045 Y132.983
G0 X178.322 Y133.751
G0 X178.308 Y135.768
G0 X174.798 Y135.698
G0 X174.616 Y138.214
G0 X176.269 Y139.178
;TYPE:WALL-INNER
G1 F2700 E13.56379
G1 F1200 X176.404 Y139.19 E13.5665
G1 X176.537 Y139.192 E13.56915
G1 X176.67 Y139.185 E13.57181
G1 X176.805 Y139.168 E13.57452
G1 X176.936 Y139.14 E13.5772
G1 X177.064 Y139.105 E13.57985
G1 X177.193 Y139.057 E13.58259
G1 X177.324 Y138.999 E13.58545
G1 X177.539 Y138.871 E13.59044
G1 X177.652 Y138.783 E13.5933
G1 X177.752 Y138.698 E13.59592
G1 X177.849 Y138.599 E13.59869
G1 X177.936 Y138.496 E13.60138
G1 X178.016 Y138.386 E13.60409
G1 X178.086 Y138.271 E13.60678
G1 X178.146 Y138.157 E13.60935
G1 X178.201 Y138.032 E13.61208
G1 X178.245 Y137.901 E13.61483
G1 X178.278 Y137.775 E13.61743
G1 X178.304 Y137.644 E13.6201
G1 X178.319 Y137.505 E13.62289
G1 X178.323 Y137.373 E13.62552
G1 X178.319 Y137.239 E13.6282
G1 X178.304 Y137.103 E13.63093
G1 X178.278 Y136.973 E13.63357
G1 X178.245 Y136.845 E13.63621
G1 X178.201 Y136.716 E13.63893
G1 X178.147 Y136.591 E13.64165
G1 X178.085 Y136.473 E13.64431
G1 X178.014 Y136.358 E13.64701
G1 X177.935 Y136.25 E13.64968
G1 X177.851 Y136.15 E13.65228
G1 X177.755 Y136.051 E13.65504
G1 X177.651 Y135.96 E13.65779
G1 X177.544 Y135.881 E13.66045
G1 X177.433 Y135.809 E13.66309
G1 X177.314 Y135.745 E13.66578
G1 X177.193 Y135.69 E13.66844
G1 X177.067 Y135.644 E13.67111
G1 X176.937 Y135.606 E13.67382
G1 X176.806 Y135.579 E13.67649
G1 X176.673 Y135.562 E13.67916
G1 X176.536 Y135.554 E13.6819
G1 X176.395 Y135.556 E13.68471
G1 X176.146 Y135.589 E13.68973
G1 X176.008 Y135.622 E13.69256
G1 X175.876 Y135.664 E13.69532
G1 X175.751 Y135.716 E13.69802
G1 X175.629 Y135.778 E13.70076
G1 X175.518 Y135.844 E13.70333
G1 X175.409 Y135.92 E13.70598
G1 X175.303 Y136.007 E13.70872
G1 X175.205 Y136.099 E13.7114
G1 X175.115 Y136.198 E13.71407
G1 X175.032 Y136.302 E13.71673
G1 X174.955 Y136.416 E13.71947
G1 X174.889 Y136.535 E13.72219
G1 X174.834 Y136.651 E13.72475
G1 X174.784 Y136.778 E13.72747
G1 X174.745 Y136.907 E13.73016
G1 X174.715 Y137.037 E13.73283
G1 X174.695 Y137.173 E13.73557
G1 X174.684 Y137.317 E13.73845
G1 X174.694 Y137.562 E13.74335
G1 X174.714 Y137.707 E13.74627
G1 X174.745 Y137.839 E13.74897
G1 X174.783 Y137.966 E13.75162
G1 X174.833 Y138.094 E13.75436
G1 X174.89 Y138.213 E13.75699
G1 X174.955 Y138.329 E13.75965
G1 X175.032 Y138.444 E13.76241
G1 X175.117 Y138.551 E13.76514
G1 X175.206 Y138.648 E13.76776
G1 X175.302 Y138.739 E13.7704
G1 X175.406 Y138.825 E13.7731
G1 X175.516 Y138.902 E13.77578
G1 X175.634 Y138.972 E13.77851
G1 X175.755 Y139.031 E13.7812
G1 X175.876 Y139.081 E13.78381
G1 X176.008 Y139.124 E13.78658
G1 X176.138 Y139.155 E13.78925
G1 X176.269 Y139.178 E13.7919
G0 F6000 X176.321 Y138.781
;TYPE:WALL-OUTER
G1 F1200 X176.425 Y138.79 E13.79399
G1 X176.529 Y138.792 E13.79606
G1 X176.634 Y138.786 E13.79816
G1 X176.739 Y138.773 E13.80027
G1 X176.842 Y138.751 E13.80238
G1 X176.942 Y138.724 E13.80444
G1 X177.041 Y138.687 E13.80655
G1 X177.139 Y138.643 E13.8087
G1 X177.314 Y138.539 E13.81276
G1 X177.4 Y138.473 E13.81492
G1 X177.479 Y138.405 E13.817
G1 X177.553 Y138.33 E13.8191
G1 X177.621 Y138.249 E13.82121
G1 X177.683 Y138.164 E13.82331
G1 X177.737 Y138.075 E13.82539
G1 X177.785 Y137.983 E13.82746
G1 X177.828 Y137.886 E13.82958
G1 X177.862 Y137.786 E13.83169
G1 X177.888 Y137.686 E13.83375
G1 X177.908 Y137.583 E13.83584
G1 X177.92 Y137.477 E13.83797
G1 X177.923 Y137.373 E13.84005
G1 X177.92 Y137.268 E13.84214
G1 X177.908 Y137.164 E13.84423
G1 X177.888 Y137.061 E13.84633
G1 X177.862 Y136.96 E13.84841
G1 X177.828 Y136.861 E13.8505
G1 X177.786 Y136.764 E13.85261
G1 X177.737 Y136.671 E13.8547
G1 X177.682 Y136.581 E13.85681
G1 X177.62 Y136.497 E13.85889
G1 X177.554 Y136.418 E13.86095
G1 X177.48 Y136.342 E13.86306
G1 X177.4 Y136.272 E13.86519
G1 X177.316 Y136.21 E13.86727
G1 X177.228 Y136.153 E13.86936
G1 X177.136 Y136.103 E13.87145
G1 X177.041 Y136.06 E13.87353
G1 X176.943 Y136.024 E13.87562
G1 X176.842 Y135.995 E13.87771
G1 X176.739 Y135.974 E13.87981
G1 X176.635 Y135.96 E13.8819
G1 X176.529 Y135.954 E13.88402
G1 X176.425 Y135.956 E13.8861
G1 X176.218 Y135.983 E13.89026
G1 X176.116 Y136.007 E13.89236
G1 X176.015 Y136.04 E13.89448
G1 X175.918 Y136.08 E13.89657
G1 X175.823 Y136.128 E13.89869
G1 X175.735 Y136.181 E13.90074
G1 X175.649 Y136.24 E13.90283
G1 X175.567 Y136.307 E13.90494
G1 X175.491 Y136.379 E13.90703
G1 X175.42 Y136.457 E13.90913
G1 X175.355 Y136.539 E13.91122
G1 X175.296 Y136.626 E13.91332
G1 X175.245 Y136.718 E13.91542
G1 X175.201 Y136.811 E13.91747
G1 X175.162 Y136.909 E13.91958
G1 X175.132 Y137.01 E13.92168
G1 X175.108 Y137.112 E13.92377
G1 X175.093 Y137.216 E13.92587
G1 X175.085 Y137.324 E13.92803
G1 X175.093 Y137.526 E13.93206
G1 X175.108 Y137.634 E13.93424
G1 X175.132 Y137.736 E13.93633
G1 X175.162 Y137.837 E13.93843
G1 X175.2 Y137.935 E13.94053
G1 X175.245 Y138.029 E13.94261
G1 X175.296 Y138.12 E13.94469
G1 X175.355 Y138.208 E13.94681
G1 X175.421 Y138.291 E13.94892
G1 X175.491 Y138.367 E13.95098
G1 X175.567 Y138.439 E13.95307
G1 X175.648 Y138.506 E13.95517
G1 X175.734 Y138.566 E13.95726
G1 X175.824 Y138.62 E13.95936
G1 X175.919 Y138.666 E13.96146
G1 X176.015 Y138.706 E13.96354
G1 X176.116 Y138.739 E13.96566
G1 X176.218 Y138.763 E13.96775
G1 X176.321 Y138.781 E13.96984
G0 F6000 X176.265 Y139.217
G0 X178.309 Y138.978
G0 X178.309 Y146.16
G0 X176.172 Y146.139
G0 X175.605 Y146.372
G0 X175.161 Y146.79
G0 X174.901 Y147.341
G0 X174.855 Y147.939
G0 X175.033 Y148.532
G0 X175.337 Y148.919
G0 X176.146 Y149.551
;TYPE:WALL-INNER
G1 F1200 X176.394 Y149.583 E13.97483
G1 X176.54 Y149.584 E13.97774
G1 X176.668 Y149.577 E13.9803
G1 X176.802 Y149.561 E13.98299
G1 X176.939 Y149.532 E13.98579
G1 X177.067 Y149.495 E13.98845
G1 X177.193 Y149.449 E13.99112
G1 X177.314 Y149.394 E13.99378
G1 X177.433 Y149.33 E13.99647
G1 X177.545 Y149.257 E13.99914
G1 X177.652 Y149.177 E14.00181
G1 X177.754 Y149.087 E14.00452
G1 X177.849 Y148.991 E14.00722
G1 X177.936 Y148.887 E14.00992
G1 X178.014 Y148.78 E14.01256
G1 X178.084 Y148.667 E14.01522
G1 X178.147 Y148.548 E14.0179
G1 X178.201 Y148.423 E14.02062
G1 X178.245 Y148.294 E14.02334
