;FLAVOR:Marlin
;TIME:3807
;Filament used: 1.30765m
;Layer height: 0.12
;MINX:124.206
;MINY:126.565
;MINZ:0.12
;MAXX:172.471
;MAXY:169.833
;MAXZ:19.32
;Generated with Cura_SteamEngine 4.5.0
M140 S60
M105
M190 S60
M104 S200
M105
M109 S200
M82 ;absolute extrusion mode
M201 X500.00 Y500.00 Z100.00 E5000.00 ;Setup machine max acceleration
M203 X500.00 Y500.00 Z10.00 E50.00 ;Setup machine max feedrate
M204 P500.00 R1000.00 T500.00 ;Setup Print/Retract/Travel acceleration
M205 X8.00 Y8.00 Z0.40 E5.00 ;Setup Jerk
M220 S100 ;Reset Feedrate
M221 S100 ;Reset Flowrate

G28 ;Home
M420 S1 Z2 ;Enable ABL using saved Mesh and Fade Height

G92 E0 ;Reset Extruder
G1 Z2.0 F3000 ;Move Z Axis up
G1 X10.1 Y20 Z0.28 F5000.0 ;Move to start position
G1 X10.1 Y200.0 Z0.28 F1500.0 E15 ;Draw the first line
G1 X10.4 Y200.0 Z0.28 F5000.0 ;Move to side a little
G1 X10.4 Y20 Z0.28 F1500.0 E30 ;Draw the second line
G92 E0 ;Reset Extruder
G1 Z2.0 F3000 ;Move Z Axis up

G92 E0
G92 E0
G1 F2700 E-5
;LAYER_COUNT:161
;LAYER:0
M107
G0 F6000 X129.044 Y131.173 Z0.12
;TYPE:SKIRT
G1 F2700 E0
G1 F1200 X129.304 Y130.946 E0.00689
G1 X130.232 Y130.22 E0.0304
G1 X130.695 Y129.896 E0.04168
G1 X131.585 Y129.334 E0.06268
G1 X131.813 Y129.205 E0.06791
G1 X132.112 Y129.042 E0.07471
G1 X132.424 Y128.878 E0.08174
G1 X133.013 Y128.591 E0.09482
G1 X133.21 Y128.502 E0.09913
G1 X133.649 Y128.314 E0.10866
G1 X134.061 Y128.149 E0.11752
G1 X134.558 Y127.964 E0.1281
G1 X134.856 Y127.861 E0.13439
G1 X135.437 Y127.676 E0.14656
G1 X135.752 Y127.585 E0.1531
G1 X136.591 Y127.359 E0.17044
G1 X136.812 Y127.305 E0.17498
G1 X137.42 Y127.171 E0.18741
G1 X137.75 Y127.105 E0.19412
G1 X138.482 Y126.976 E0.20896
G1 X139.288 Y126.857 E0.22522
G1 X140.043 Y126.767 E0.24039
G1 X140.727 Y126.702 E0.2541
G1 X141.061 Y126.676 E0.26079
G1 X142.006 Y126.618 E0.27968
G1 X142.92 Y126.586 E0.29793
G1 X144.491 Y126.565 E0.32929
G1 X160.287 Y126.566 E0.64451
G1 X160.985 Y126.576 E0.65844
G1 X162.242 Y126.666 E0.68359
G1 X162.481 Y126.697 E0.6884
G1 X163.405 Y126.858 E0.70712
G1 X164.312 Y127.096 E0.72583
G1 X165.196 Y127.411 E0.74456
G1 X166.049 Y127.799 E0.76326
G1 X166.629 Y128.116 E0.77645
G1 X166.861 Y128.252 E0.78182
G1 X167.649 Y128.761 E0.80054
G1 X168.391 Y129.334 E0.81925
G1 X169.081 Y129.969 E0.83796
G1 X169.715 Y130.66 E0.85667
G1 X170.383 Y131.541 E0.87874
G1 X170.469 Y131.667 E0.88178
G1 X170.965 Y132.463 E0.9005
G1 X171.39 Y133.299 E0.91921
G1 X171.814 Y134.373 E0.94226
G1 X171.878 Y134.564 E0.94628
G1 X172.138 Y135.465 E0.96499
G1 X172.32 Y136.385 E0.98371
G1 X172.417 Y137.227 E1.00062
G1 X172.433 Y137.438 E1.00484
G1 X172.463 Y138.121 E1.01849
G1 X172.471 Y138.788 E1.0318
G1 X172.469 Y157.652 E1.40825
G1 X172.459 Y158.353 E1.42224
G1 X172.406 Y159.289 E1.44095
G1 X172.253 Y160.32 E1.46175
G1 X172.191 Y160.635 E1.46816
G1 X171.971 Y161.547 E1.48688
G1 X171.674 Y162.437 E1.5056
G1 X171.302 Y163.298 E1.52432
G1 X170.858 Y164.124 E1.54303
G1 X170.346 Y164.909 E1.56174
G1 X169.724 Y165.7 E1.58182
G1 X169.547 Y165.905 E1.58722
G1 X168.904 Y166.588 E1.60594
G1 X168.206 Y167.214 E1.62465
G1 X167.457 Y167.778 E1.64336
G1 X166.662 Y168.276 E1.66208
G1 X165.448 Y168.871 E1.68906
G1 X165.239 Y168.958 E1.69358
G1 X164.359 Y169.281 E1.71229
G1 X163.454 Y169.528 E1.73101
G1 X162.532 Y169.698 E1.74972
G1 X161.36 Y169.797 E1.77319
G1 X160.413 Y169.827 E1.7921
G1 X160.057 Y169.833 E1.7992
G1 X143.579 Y169.82 E2.12804
G1 X142.491 Y169.8 E2.14976
G1 X141.729 Y169.766 E2.16498
G1 X140.409 Y169.67 E2.19139
G1 X140.104 Y169.638 E2.19751
G1 X139.528 Y169.571 E2.20908
G1 X138.969 Y169.492 E2.22035
G1 X137.902 Y169.312 E2.24194
G1 X137.143 Y169.156 E2.25741
G1 X136.185 Y168.924 E2.27708
G1 X135.56 Y168.757 E2.28999
G1 X134.932 Y168.562 E2.30311
G1 X134.708 Y168.485 E2.30784
G1 X134.287 Y168.33 E2.31679
G1 X133.728 Y168.112 E2.32876
G1 X132.945 Y167.771 E2.34581
G1 X132.659 Y167.633 E2.35214
G1 X132.271 Y167.436 E2.36083
G1 X132.038 Y167.312 E2.36609
G1 X131.481 Y166.995 E2.37888
G1 X131.143 Y166.789 E2.38678
G1 X130.499 Y166.365 E2.40217
G1 X130.261 Y166.196 E2.408
G1 X129.688 Y165.76 E2.42236
G1 X129.409 Y165.533 E2.42954
G1 X128.67 Y164.874 E2.4493
G1 X128.425 Y164.635 E2.45613
G1 X127.786 Y163.957 E2.47472
G1 X127.626 Y163.772 E2.4796
G1 X126.942 Y162.895 E2.5018
G1 X126.782 Y162.667 E2.50736
G1 X126.409 Y162.1 E2.5209
G1 X126.29 Y161.906 E2.52544
G1 X125.835 Y161.086 E2.54416
G1 X125.614 Y160.62 E2.55445
G1 X125.399 Y160.136 E2.56502
G1 X125.055 Y159.263 E2.58375
G1 X124.806 Y158.439 E2.60092
G1 X124.626 Y157.747 E2.61519
G1 X124.429 Y156.83 E2.63391
G1 X124.324 Y156.049 E2.64964
G1 X124.274 Y155.538 E2.65988
G1 X124.233 Y154.958 E2.67149
G1 X124.223 Y154.734 E2.67596
G1 X124.213 Y154.349 E2.68365
G1 X124.206 Y153.618 E2.69823
G1 X124.212 Y142.443 E2.92124
G1 X124.22 Y141.905 E2.93198
G1 X124.251 Y141.237 E2.94533
G1 X124.289 Y140.736 E2.95535
G1 X124.408 Y139.75 E2.97517
G1 X124.47 Y139.38 E2.98266
G1 X124.706 Y138.306 E3.0046
G1 X124.797 Y137.972 E3.01151
G1 X125.103 Y137.022 E3.03143
G1 X125.251 Y136.625 E3.03988
G1 X125.647 Y135.695 E3.06006
G1 X125.738 Y135.506 E3.06424
G1 X126.226 Y134.604 E3.08471
G1 X126.338 Y134.418 E3.08904
G1 X126.894 Y133.582 E3.10908
G1 X127.126 Y133.266 E3.1169
G1 X127.826 Y132.407 E3.13901
G1 X128.112 Y132.09 E3.14753
G1 X129.044 Y131.173 E3.17363
G0 F6000 X129.308 Y131.474
G1 F1200 X129.568 Y131.247 E3.18051
G1 X130.462 Y130.547 E3.20317
G1 X130.925 Y130.223 E3.21445
G1 X131.782 Y129.682 E3.23467
G1 X132.01 Y129.553 E3.2399
G1 X132.298 Y129.396 E3.24645
G1 X132.61 Y129.232 E3.25348
G1 X133.178 Y128.955 E3.26609
G1 X133.375 Y128.866 E3.27041
G1 X133.798 Y128.686 E3.27958
G1 X134.21 Y128.521 E3.28844
G1 X134.688 Y128.343 E3.29862
G1 X134.986 Y128.24 E3.30491
G1 X135.554 Y128.059 E3.31681
G1 X135.858 Y127.971 E3.32312
G1 X136.686 Y127.748 E3.34023
G1 X137.204 Y127.626 E3.35085
G1 X137.503 Y127.562 E3.35696
G1 X137.822 Y127.499 E3.36345
G1 X138.543 Y127.372 E3.37805
G1 X139.337 Y127.254 E3.39407
G1 X140.081 Y127.166 E3.40902
G1 X141.087 Y127.075 E3.42918
G1 X142.022 Y127.018 E3.44788
G1 X142.925 Y126.986 E3.46591
G1 X144.491 Y126.965 E3.49716
G1 X160.281 Y126.966 E3.81227
G1 X160.979 Y126.976 E3.8262
G1 X162.19 Y127.063 E3.85043
G1 X162.429 Y127.094 E3.85524
G1 X163.336 Y127.252 E3.87361
G1 X164.226 Y127.488 E3.89199
G1 X165.092 Y127.8 E3.91035
G1 X165.928 Y128.187 E3.92874
G1 X166.427 Y128.461 E3.9401
G1 X166.659 Y128.597 E3.94547
G1 X167.432 Y129.097 E3.96384
G1 X168.159 Y129.662 E3.98221
G1 X168.834 Y130.288 E4.00058
G1 X169.453 Y130.97 E4.01896
G1 X170.053 Y131.766 E4.03886
G1 X170.139 Y131.892 E4.0419
G1 X170.625 Y132.675 E4.06029
G1 X171.04 Y133.496 E4.07865
G1 X171.435 Y134.5 E4.10018
G1 X171.499 Y134.691 E4.1042
G1 X171.753 Y135.576 E4.12257
G1 X171.93 Y136.48 E4.14096
G1 X172.018 Y137.258 E4.15658
G1 X172.034 Y137.469 E4.1608
G1 X172.063 Y138.126 E4.17393
G1 X172.071 Y138.788 E4.18714
G1 X172.069 Y157.646 E4.56347
G1 X172.059 Y158.347 E4.57746
G1 X172.006 Y159.266 E4.59583
G1 X171.86 Y160.243 E4.61555
G1 X171.798 Y160.558 E4.62195
G1 X171.582 Y161.453 E4.64033
G1 X171.288 Y162.325 E4.65869
G1 X170.92 Y163.169 E4.67707
G1 X170.48 Y163.978 E4.69544
G1 X169.971 Y164.745 E4.71381
G1 X169.421 Y165.438 E4.73147
G1 X169.244 Y165.643 E4.73687
G1 X168.613 Y166.313 E4.75524
G1 X167.926 Y166.926 E4.77361
G1 X167.188 Y167.477 E4.79199
G1 X166.405 Y167.962 E4.81037
G1 X165.295 Y168.502 E4.83501
G1 X165.086 Y168.589 E4.83953
G1 X164.221 Y168.906 E4.85791
G1 X163.332 Y169.146 E4.87629
G1 X162.426 Y169.308 E4.89465
G1 X161.348 Y169.398 E4.91624
G1 X160.401 Y169.428 E4.93515
G1 X160.057 Y169.433 E4.94201
G1 X143.585 Y169.42 E5.27073
G1 X142.507 Y169.4 E5.29225
G1 X141.756 Y169.367 E5.30725
G1 X140.445 Y169.271 E5.33348
G1 X140.15 Y169.241 E5.3394
G1 X139.574 Y169.174 E5.35097
G1 X139.036 Y169.097 E5.36182
G1 X137.969 Y168.917 E5.38341
G1 X137.237 Y168.767 E5.39832
G1 X136.279 Y168.535 E5.41799
G1 X135.667 Y168.371 E5.43064
G1 X135.062 Y168.183 E5.44328
G1 X134.838 Y168.106 E5.44801
G1 X134.433 Y167.958 E5.45661
G1 X133.874 Y167.74 E5.46859
G1 X133.119 Y167.411 E5.48502
G1 X132.833 Y167.273 E5.49136
G1 X132.459 Y167.083 E5.49973
G1 X132.226 Y166.959 E5.505
G1 X131.689 Y166.653 E5.51733
G1 X131.351 Y166.447 E5.52523
G1 X130.731 Y166.039 E5.54004
G1 X130.493 Y165.87 E5.54587
G1 X129.94 Y165.449 E5.55974
G1 X129.661 Y165.222 E5.56691
G1 X128.949 Y164.588 E5.58594
G1 X128.704 Y164.349 E5.59277
G1 X128.089 Y163.695 E5.61069
G1 X127.929 Y163.51 E5.61557
G1 X127.269 Y162.665 E5.63696
G1 X127.109 Y162.437 E5.64252
G1 X126.75 Y161.89 E5.65558
G1 X126.631 Y161.696 E5.66012
G1 X126.185 Y160.891 E5.67849
G1 X125.98 Y160.457 E5.68806
G1 X125.765 Y159.973 E5.69863
G1 X125.428 Y159.116 E5.71701
G1 X125.193 Y158.338 E5.73323
G1 X125.013 Y157.646 E5.7475
G1 X124.821 Y156.746 E5.76586
G1 X124.722 Y156.01 E5.78068
G1 X124.672 Y155.499 E5.79093
G1 X124.633 Y154.94 E5.80211
G1 X124.623 Y154.716 E5.80659
G1 X124.612 Y154.346 E5.81397
G1 X124.606 Y153.618 E5.8285
G1 X124.612 Y142.449 E6.05139
G1 X124.62 Y141.911 E6.06213
G1 X124.649 Y141.267 E6.07499
G1 X124.687 Y140.766 E6.08502
G1 X124.803 Y139.816 E6.10412
G1 X124.865 Y139.446 E6.11161
G1 X125.092 Y138.412 E6.13273
G1 X125.183 Y138.078 E6.13964
G1 X125.478 Y137.161 E6.15886
G1 X125.626 Y136.764 E6.16732
G1 X126.007 Y135.869 E6.18673
G1 X126.098 Y135.68 E6.19092
G1 X126.568 Y134.81 E6.21065
G1 X126.68 Y134.624 E6.21498
G1 X127.217 Y133.819 E6.23429
G1 X127.449 Y133.503 E6.24212
G1 X128.123 Y132.675 E6.26342
G1 X128.409 Y132.358 E6.27194
G1 X129.308 Y131.474 E6.2971
G0 F6000 X129.571 Y131.775
G1 F1200 X129.831 Y131.548 E6.30399
G1 X130.691 Y130.875 E6.32578
G1 X131.154 Y130.551 E6.33706
G1 X131.979 Y130.03 E6.35653
G1 X132.484 Y129.75 E6.36806
G1 X132.796 Y129.586 E6.37509
G1 X133.343 Y129.32 E6.38723
G1 X133.54 Y129.231 E6.39154
G1 X133.947 Y129.057 E6.40038
G1 X134.359 Y128.892 E6.40923
G1 X134.819 Y128.721 E6.41903
G1 X135.117 Y128.618 E6.42532
G1 X135.671 Y128.441 E6.43693
G1 X135.963 Y128.356 E6.44299
G1 X137.002 Y128.083 E6.46443
G1 X137.587 Y127.953 E6.47639
G1 X137.893 Y127.892 E6.48262
G1 X138.604 Y127.767 E6.49702
G1 X139.387 Y127.651 E6.51282
G1 X140.119 Y127.564 E6.52753
G1 X141.113 Y127.474 E6.54745
G1 X142.037 Y127.418 E6.56592
G1 X142.931 Y127.386 E6.58377
G1 X144.491 Y127.365 E6.61491
G1 X160.275 Y127.366 E6.9299
G1 X160.973 Y127.376 E6.94383
G1 X162.139 Y127.46 E6.96716
G1 X162.378 Y127.491 E6.97196
G1 X163.268 Y127.646 E6.98999
G1 X164.14 Y127.88 E7.00801
G1 X164.988 Y128.19 E7.02603
G1 X165.806 Y128.574 E7.04406
G1 X166.224 Y128.806 E7.0536
G1 X166.456 Y128.942 E7.05897
G1 X167.214 Y129.433 E7.07699
G1 X167.926 Y129.989 E7.09502
G1 X168.586 Y130.606 E7.11305
G1 X169.189 Y131.278 E7.13107
G1 X169.723 Y131.992 E7.14886
G1 X169.809 Y132.118 E7.1519
G1 X170.284 Y132.886 E7.16993
G1 X170.69 Y133.692 E7.18794
G1 X171.055 Y134.627 E7.20797
G1 X171.119 Y134.818 E7.21199
G1 X171.368 Y135.686 E7.23001
G1 X171.539 Y136.573 E7.24803
G1 X171.619 Y137.288 E7.26239
G1 X171.635 Y137.499 E7.26661
G1 X171.663 Y138.132 E7.27926
G1 X171.671 Y138.788 E7.29235
G1 X171.669 Y157.64 E7.66856
G1 X171.659 Y158.341 E7.68255
G1 X171.606 Y159.243 E7.70058
G1 X171.468 Y160.166 E7.71921
G1 X171.406 Y160.481 E7.72562
G1 X171.193 Y161.358 E7.74363
G1 X170.902 Y162.214 E7.76167
G1 X170.538 Y163.04 E7.77968
G1 X170.101 Y163.83 E7.7977
G1 X169.596 Y164.579 E7.81573
G1 X169.118 Y165.177 E7.831
G1 X168.941 Y165.382 E7.83641
G1 X168.322 Y166.039 E7.85442
G1 X167.646 Y166.638 E7.87245
G1 X166.92 Y167.175 E7.89047
G1 X166.15 Y167.646 E7.90848
G1 X165.141 Y168.133 E7.93084
G1 X164.932 Y168.22 E7.93536
G1 X164.084 Y168.53 E7.95337
G1 X163.211 Y168.763 E7.97141
G1 X162.322 Y168.919 E7.98942
G1 X161.335 Y168.998 E8.00918
G1 X160.388 Y169.028 E8.02808
G1 X160.057 Y169.033 E8.03469
G1 X143.591 Y169.02 E8.36329
G1 X142.522 Y169 E8.38462
G1 X141.783 Y168.967 E8.39939
G1 X140.741 Y168.896 E8.42023
G1 X140.196 Y168.844 E8.43115
G1 X139.62 Y168.777 E8.44273
G1 X139.102 Y168.703 E8.45317
G1 X138.035 Y168.523 E8.47476
G1 X137.331 Y168.378 E8.48911
G1 X136.373 Y168.146 E8.50878
G1 X136.04 Y168.06 E8.51564
G1 X135.774 Y167.986 E8.52115
G1 X135.192 Y167.805 E8.53331
G1 X134.968 Y167.728 E8.53804
G1 X134.578 Y167.585 E8.54633
G1 X134.019 Y167.367 E8.5583
G1 X133.292 Y167.05 E8.57413
G1 X133.006 Y166.912 E8.58047
G1 X132.647 Y166.73 E8.5885
G1 X132.414 Y166.606 E8.59377
G1 X131.898 Y166.312 E8.60562
G1 X131.56 Y166.106 E8.61352
G1 X130.963 Y165.713 E8.62778
G1 X130.725 Y165.544 E8.63361
G1 X130.193 Y165.139 E8.64695
G1 X129.914 Y164.912 E8.65413
G1 X129.228 Y164.301 E8.67246
G1 X128.983 Y164.062 E8.67929
G1 X128.391 Y163.433 E8.69653
G1 X128.231 Y163.248 E8.70141
G1 X127.597 Y162.435 E8.72198
G1 X127.437 Y162.207 E8.72754
G1 X127.091 Y161.681 E8.74011
G1 X126.972 Y161.487 E8.74465
G1 X126.345 Y160.295 E8.77153
G1 X126.13 Y159.811 E8.7821
G1 X125.801 Y158.97 E8.80012
G1 X125.58 Y158.238 E8.81538
G1 X125.4 Y157.546 E8.82965
G1 X125.212 Y156.663 E8.84766
G1 X125.12 Y155.971 E8.86159
G1 X125.07 Y155.46 E8.87184
G1 X125.032 Y154.922 E8.8826
G1 X125.022 Y154.698 E8.88708
G1 X125.012 Y154.342 E8.89418
G1 X125.006 Y153.618 E8.90863
G1 X125.012 Y142.455 E9.1314
G1 X125.02 Y141.917 E9.14214
G1 X125.048 Y141.298 E9.15451
G1 X125.086 Y140.797 E9.16453
G1 X125.197 Y139.882 E9.18293
G1 X125.259 Y139.512 E9.19041
G1 X125.478 Y138.517 E9.21074
G1 X125.569 Y138.183 E9.21765
G1 X125.853 Y137.301 E9.23614
G1 X126.001 Y136.904 E9.2446
G1 X126.368 Y136.042 E9.2633
G1 X126.459 Y135.853 E9.26748
G1 X126.911 Y135.016 E9.28646
G1 X127.023 Y134.83 E9.2908
G1 X127.539 Y134.056 E9.30936
G1 X127.771 Y133.74 E9.31718
G1 X128.42 Y132.943 E9.3377
G1 X128.706 Y132.626 E9.34622
G1 X129.571 Y131.775 E9.37043
G1 F2700 E4.37043
;MESH:Object 2
G0 F6000 X139.193 Y146.266
G0 X137.804 Y145.035
G0 X137.356 Y147.907
G0 X137.389 Y148.78
G0 X137.609 Y149.624
G0 X138.008 Y150.4
G0 X138.567 Y151.07
G0 X139.126 Y151.502
G0 X141.503 Y152.746
;TYPE:WALL-INNER
G1 F2700 E9.37043
G1 F1200 X141.832 Y152.722 E9.37701
G1 X142.161 Y152.675 E9.38365
G1 X142.489 Y152.601 E9.39036
G1 X142.806 Y152.505 E9.39697
G1 X143.114 Y152.388 E9.40354
G1 X143.417 Y152.246 E9.41022
G1 X143.705 Y152.084 E9.41681
G1 X143.984 Y151.9 E9.42348
G1 X144.248 Y151.695 E9.43015
G1 X144.493 Y151.475 E9.43672
G1 X144.725 Y151.236 E9.44337
G1 X144.938 Y150.978 E9.45005
G1 X145.13 Y150.71 E9.45663
G1 X145.305 Y150.426 E9.46328
G1 X145.456 Y150.13 E9.46992
G1 X145.587 Y149.824 E9.47656
G1 X145.693 Y149.508 E9.48321
G1 X145.778 Y149.189 E9.4898
G1 X145.838 Y148.863 E9.49641
G1 X145.875 Y148.531 E9.50308
G1 X145.886 Y148.199 E9.50971
G1 X145.875 Y147.866 E9.51636
G1 X145.838 Y147.535 E9.523
G1 X145.778 Y147.209 E9.52962
G1 X145.693 Y146.889 E9.53623
G1 X145.587 Y146.573 E9.54288
G1 X145.456 Y146.267 E9.54952
G1 X145.305 Y145.971 E9.55615
G1 X145.131 Y145.688 E9.56278
G1 X144.938 Y145.418 E9.5694
G1 X144.725 Y145.162 E9.57605
G1 X144.495 Y144.923 E9.58267
G1 X144.247 Y144.702 E9.5893
G1 X143.984 Y144.497 E9.59595
G1 X143.705 Y144.313 E9.60262
G1 X143.417 Y144.151 E9.60922
G1 X143.114 Y144.009 E9.61589
G1 X142.806 Y143.892 E9.62247
G1 X142.488 Y143.796 E9.6291
G1 X142.161 Y143.723 E9.63578
G1 X141.834 Y143.675 E9.64238
G1 X141.503 Y143.651 E9.649
G1 X141.169 Y143.651 E9.65567
G1 X140.838 Y143.675 E9.66229
G1 X140.511 Y143.723 E9.66889
G1 X140.184 Y143.796 E9.67557
G1 X139.866 Y143.892 E9.6822
G1 X139.558 Y144.009 E9.68878
G1 X139.255 Y144.151 E9.69545
G1 X138.967 Y144.313 E9.70205
G1 X138.688 Y144.497 E9.70872
G1 X138.425 Y144.702 E9.71537
G1 X138.177 Y144.923 E9.722
G1 X137.947 Y145.162 E9.72862
G1 X137.734 Y145.418 E9.73527
G1 X137.541 Y145.688 E9.74189
G1 X137.367 Y145.971 E9.74852
G1 X137.216 Y146.267 E9.75515
G1 X137.085 Y146.573 E9.76179
G1 X136.979 Y146.889 E9.76844
G1 X136.894 Y147.209 E9.77505
G1 X136.834 Y147.535 E9.78167
G1 X136.797 Y147.866 E9.78831
G1 X136.786 Y148.199 E9.79496
G1 X136.797 Y148.531 E9.80159
G1 X136.834 Y148.863 E9.80826
G1 X136.894 Y149.189 E9.81487
G1 X136.979 Y149.508 E9.82146
G1 X137.085 Y149.824 E9.82811
G1 X137.216 Y150.13 E9.83476
